material/.icons/material/syllabary-katakana.svg

<svg xmlns="http://www.w3.org/2000/svg" viewBox="0 0 24 24"><path d="M4 4v2h14v.09l-3.71 3.7 1.42 1.42L20 6.91V4m-9 5v4c0 2.78-.75 3.89-2.64 5.46L9.64 20c2.11-1.76 3.36-3.78 3.36-7V9z"/></svg>

<?xml version="1.0" encoding="UTF-8"?><!DOCTYPE svg PUBLIC "-//W3C//DTD SVG 1.1//EN" "http://www.w3.org/Graphics/SVG/1.1/DTD/svg11.dtd"><svg xmlns="http://www.w3.org/2000/svg" xmlns:xlink="http://www.w3.org/1999/xlink" version="1.1" id="mdi-syllabary-katakana" width="24" height="24" viewBox="0 0 24 24"><path d="M4 4V6H18V6.09L14.29 9.79L15.71 11.21L20 6.91V4M11 9V13C11 15.78 10.25 16.89 8.36 18.46L9.64 20C11.75 18.24 13 16.22 13 13V9Z" /></svg>
